public/logos/GP.svg

<?xml version="1.0" encoding="UTF-8"?>
<svg xmlns="http://www.w3.org/2000/svg" xmlns:xlink="http://www.w3.org/1999/xlink" width="176pt" height="34.6pt" viewBox="0 0 176 34.6" version="1.1">
<defs>
<clipPath id="clip1">
  <path d="M 42 0 L 134 0 L 134 34.601562 L 42 34.601562 Z M 42 0 "/>
</clipPath>
<clipPath id="clip2">
  <path d="M 128 0 L 176 0 L 176 34.601562 L 128 34.601562 Z M 128 0 "/>
</clipPath>
<clipPath id="clip3">
  <path d="M 22 0 L 51 0 L 51 34.601562 L 22 34.601562 Z M 22 0 "/>
</clipPath>
<clipPath id="clip4">
  <path d="M 0 0 L 24 0 L 24 34.601562 L 0 34.601562 Z M 0 0 "/>
</clipPath>
</defs>
<g id="surface1">
<g clip-path="url(#clip1)" clip-rule="nonzero">
<path style=" stroke:none;fill-rule:nonzero;fill:rgb(8.392334%,12.065125%,13.859558%);fill-opacity:1;" d="M 64.472656 16.769531 C 67.476562 16.769531 70.289062 16.769531 73.277344 16.769531 C 71.949219 14.285156 70.679688 11.90625 69.320312 9.363281 C 67.644531 11.925781 66.101562 14.28125 64.472656 16.769531 Z M 100.421875 16.738281 C 100.707031 16.789062 100.816406 16.828125 100.929688 16.828125 C 107.039062 16.832031 113.148438 16.851562 119.261719 16.808594 C 119.945312 16.800781 120.6875 16.546875 121.308594 16.226562 C 123.050781 15.324219 123.894531 13.71875 124.332031 11.890625 C 124.902344 9.511719 123.871094 8.234375 121.429688 8.230469 C 116.191406 8.222656 110.953125 8.226562 105.71875 8.230469 C 105.382812 8.230469 105.046875 8.265625 104.648438 8.285156 C 103.253906 11.074219 101.867188 13.847656 100.421875 16.738281 Z M 91.808594 34.5625 C 88.800781 34.5625 85.84375 34.5625 82.78125 34.5625 C 81.136719 31.527344 79.476562 28.460938 77.789062 25.347656 C 71.472656 25.347656 65.175781 25.347656 58.773438 25.347656 C 56.636719 28.367188 54.464844 31.433594 52.261719 34.539062 C 49.121094 34.539062 45.980469 34.539062 42.609375 34.539062 C 50.300781 23.003906 57.914062 11.578125 65.546875 0.125 C 68.417969 0.125 71.261719 0.125 74.222656 0.125 C 78.566406 8.207031 82.929688 16.320312 87.394531 24.628906 C 91.328125 16.339844 95.164062 8.261719 99.023438 0.128906 C 99.421875 0.109375 99.796875 0.078125 100.171875 0.078125 C 108.34375 0.0742188 116.519531 0.0703125 124.691406 0.0859375 C 126.816406 0.0898438 128.835938 0.5625 130.683594 1.644531 C 133.113281 3.0625 134.324219 5.445312 133.785156 8.199219 C 133.0625 11.902344 131.914062 15.484375 130 18.761719 C 127.714844 22.667969 124.261719 24.847656 119.765625 25.015625 C 114.410156 25.214844 109.050781 25.15625 103.691406 25.199219 C 101.261719 25.214844 98.832031 25.199219 96.355469 25.199219 C 94.828125 28.351562 93.320312 31.453125 91.808594 34.5625 "/>
</g>
<g clip-path="url(#clip2)" clip-rule="nonzero">
<path style=" stroke:none;fill-rule:nonzero;fill:rgb(8.392334%,12.065125%,13.859558%);fill-opacity:1;" d="M 173.566406 12.011719 C 170.785156 12.011719 168.050781 12.011719 165.160156 12.011719 C 165.296875 11.535156 165.429688 11.128906 165.527344 10.710938 C 165.980469 8.769531 165.195312 7.609375 163.214844 7.582031 C 159.566406 7.527344 155.910156 7.503906 152.269531 7.640625 C 148.382812 7.789062 145.425781 9.789062 143.585938 13.09375 C 141.648438 16.570312 140.023438 20.226562 138.355469 23.847656 C 137.585938 25.515625 138.296875 26.6875 140.128906 26.726562 C 144.648438 26.816406 149.175781 26.816406 153.695312 26.765625 C 155.90625 26.738281 157.605469 25.667969 158.71875 23.726562 C 158.859375 23.484375 158.925781 23.195312 159.082031 22.777344 C 157.585938 22.777344 156.238281 22.777344 154.699219 22.777344 C 155.921875 20.265625 157.0625 17.921875 158.214844 15.558594 C 162.976562 15.558594 167.679688 15.558594 172.636719 15.558594 C 169.632812 21.949219 166.675781 28.242188 163.707031 34.554688 C 160.742188 34.554688 157.824219 34.554688 154.828125 34.554688 C 154.949219 34.121094 155.058594 33.734375 155.195312 33.242188 C 153.898438 33.414062 152.671875 33.640625 151.4375 33.722656 C 146.589844 34.039062 141.734375 34.3125 136.886719 34.59375 C 136.546875 34.613281 136.199219 34.589844 135.859375 34.550781 C 131.101562 34.019531 128.601562 31.1875 128.65625 26.382812 C 128.675781 24.964844 128.960938 23.640625 129.65625 22.351562 C 132.539062 17 135.296875 11.582031 138.191406 6.238281 C 140.351562 2.25 143.675781 0.0664062 148.328125 0.0703125 C 154.335938 0.0703125 160.339844 -0.0429688 166.347656 0.0273438 C 168.222656 0.046875 170.152344 0.289062 171.953125 0.796875 C 175.234375 1.722656 176.527344 4.164062 175.804688 7.488281 C 175.480469 8.980469 174.679688 10.613281 173.566406 12.011719 "/>
</g>
<g clip-path="url(#clip3)" clip-rule="nonzero">
<path style=" stroke:none;fill-rule:nonzero;fill:rgb(8.392334%,12.065125%,13.859558%);fill-opacity:1;" d="M 31.238281 19.429688 C 34.375 19.285156 37.40625 19.160156 40.441406 19.003906 C 41.664062 18.9375 42.214844 18.542969 42.445312 17.671875 C 42.78125 16.40625 42.101562 15.410156 40.714844 15.320312 C 38.25 15.160156 35.78125 15.085938 33.3125 14.96875 C 32.636719 14.9375 31.957031 14.886719 31.226562 14.839844 C 28.386719 9.964844 25.566406 5.121094 22.667969 0.144531 C 32.105469 0.144531 41.355469 0.144531 50.808594 0.144531 C 46.082031 11.667969 41.394531 23.09375 36.691406 34.546875 C 32.015625 34.546875 27.390625 34.546875 22.546875 34.546875 C 25.484375 29.4375 28.367188 24.425781 31.238281 19.429688 "/>
</g>
<g clip-path="url(#clip4)" clip-rule="nonzero">
<path style=" stroke:none;fill-rule:nonzero;fill:rgb(8.392334%,12.065125%,13.859558%);fill-opacity:1;" d="M 18.835938 34.5625 C 12.507812 34.5625 6.355469 34.5625 0 34.5625 C 4.875 23.039062 9.710938 11.621094 14.5625 0.152344 C 16 0.152344 17.390625 0.152344 18.90625 0.152344 C 20.46875 5.050781 22.035156 9.953125 23.644531 14.980469 C 20.996094 15.140625 18.46875 15.296875 15.929688 15.449219 C 15.0625 14.375 14.230469 13.34375 13.414062 12.328125 C 12.421875 12.328125 11.484375 12.328125 10.429688 12.328125 C 10.847656 13.710938 11.296875 14.996094 11.617188 16.3125 C 11.757812 16.902344 11.757812 17.585938 11.617188 18.175781 C 11.300781 19.496094 10.851562 20.78125 10.429688 22.1875 C 11.453125 22.1875 12.378906 22.1875 13.425781 22.1875 C 14.1875 21.230469 15.011719 20.195312 15.910156 19.058594 C 18.382812 19.199219 20.914062 19.34375 23.644531 19.5 C 22.015625 24.601562 20.429688 29.5625 18.835938 34.5625 "/>
</g>
</g>
</svg>

<svg xmlns="http://www.w3.org/2000/svg" width="176pt" height="34.6pt" viewBox="0 0 176 34.6"><defs><clipPath id="a"><path d="M42 0h92v34.602H42Zm0 0"/></clipPath><clipPath id="b"><path d="M128 0h48v34.602h-48Zm0 0"/></clipPath><clipPath id="c"><path d="M22 0h29v34.602H22Zm0 0"/></clipPath><clipPath id="d"><path d="M0 0h24v34.602H0Zm0 0"/></clipPath></defs><g clip-path="url(#a)"><path d="M64.473 16.77h8.804c-1.328-2.485-2.597-4.864-3.957-7.407-1.675 2.563-3.218 4.918-4.847 7.407m35.949-.032c.285.051.394.09.508.09 6.11.004 12.218.024 18.332-.02.683-.007 1.425-.261 2.047-.581 1.742-.903 2.586-2.508 3.023-4.336.57-2.38-.46-3.657-2.902-3.66-5.239-.008-10.477-.004-15.711 0-.336 0-.672.035-1.07.054zm-8.613 17.825H82.78c-1.644-3.036-3.304-6.102-4.992-9.215H58.773q-3.205 4.532-6.511 9.191h-9.653C50.301 23.004 57.914 11.58 65.547.125h8.676c4.343 8.082 8.707 16.195 13.172 24.504 3.933-8.29 7.77-16.367 11.628-24.5.399-.02.774-.05 1.149-.05 8.172-.005 16.348-.009 24.52.007 2.124.004 4.144.477 5.992 1.559 2.43 1.418 3.64 3.8 3.101 6.554-.722 3.703-1.87 7.285-3.785 10.563-2.285 3.906-5.738 6.086-10.234 6.254-5.356.199-10.715.14-16.075.183-2.43.016-4.859 0-7.336 0a7662 7662 0 0 1-4.546 9.363" style="stroke:none;fill-rule:nonzero;fill:#151f23;fill-opacity:1"/></g><g clip-path="url(#b)"><path d="M173.566 12.012h-8.406c.137-.477.27-.883.367-1.301.453-1.941-.332-3.102-2.312-3.129-3.649-.055-7.305-.078-10.945.059-3.887.148-6.844 2.148-8.684 5.453-1.938 3.476-3.563 7.133-5.23 10.754-.77 1.668-.06 2.84 1.773 2.879 4.52.09 9.047.09 13.566.039 2.211-.028 3.91-1.098 5.024-3.04.14-.242.207-.53.363-.949h-4.383c1.223-2.511 2.363-4.855 3.516-7.218h14.422c-3.004 6.39-5.961 12.683-8.93 18.996h-8.879l.367-1.313c-1.297.172-2.523.399-3.757.48-4.848.317-9.704.59-14.551.872-.34.02-.688-.004-1.028-.043-4.757-.531-7.257-3.364-7.203-8.168.02-1.418.305-2.742 1-4.031 2.883-5.352 5.64-10.77 8.535-16.114 2.16-3.988 5.485-6.172 10.137-6.168 6.008 0 12.012-.113 18.02-.043 1.875.02 3.804.262 5.605.77 3.281.926 4.574 3.367 3.852 6.691-.325 1.492-1.125 3.125-2.239 4.524" style="stroke:none;fill-rule:nonzero;fill:#151f23;fill-opacity:1"/></g><g clip-path="url(#c)"><path d="M31.238 19.43c3.137-.145 6.168-.27 9.203-.426 1.223-.067 1.774-.461 2.004-1.332.336-1.266-.343-2.262-1.73-2.352-2.465-.16-4.934-.234-7.403-.351-.675-.031-1.355-.082-2.085-.13L22.668.146h28.14c-4.726 11.523-9.413 22.949-14.117 34.402H22.547c2.937-5.11 5.82-10.121 8.691-15.117" style="stroke:none;fill-rule:nonzero;fill:#151f23;fill-opacity:1"/></g><g clip-path="url(#d)"><path d="M18.836 34.563H0C4.875 23.039 9.71 11.62 14.563.153h4.343c1.563 4.898 3.13 9.8 4.739 14.827-2.649.16-5.176.317-7.715.47-.867-1.075-1.7-2.106-2.516-3.122H10.43c.418 1.383.867 2.668 1.187 3.985.14.59.14 1.273 0 1.863-.316 1.32-.765 2.605-1.187 4.012h2.996c.761-.958 1.586-1.993 2.484-3.13l7.735.442c-1.63 5.102-3.215 10.063-4.81 15.063" style="stroke:none;fill-rule:nonzero;fill:#151f23;fill-opacity:1"/></g></svg>
